storage/app/icons/phosphoricons/light/calendar-slash-light.svg

<svg xmlns="http://www.w3.org/2000/svg" fill="currentColor" viewBox="0 0 256 256"><path d="M52.44 36A6 6 0 0 0 48 34a14 14 0 0 0-14 14v160a14 14 0 0 0 14 14h160a6 6 0 0 0 4.44-10Zm-6.18 11 31.81 35H46V48a2.06 2.06 0 0 1 .26-1M48 210a2 2 0 0 1-2-2V94h43l105.44 116ZM222 48v129.23a6 6 0 1 1-12 0V94h-75.12a6 6 0 0 1 0-12H210V48a2 2 0 0 0-2-2h-26v10a6 6 0 0 1-12 0V46H91.25a6 6 0 0 1 0-12H170V24a6 6 0 0 1 12 0v10h26a14 14 0 0 1 14 14"/></svg>

<svg xmlns="http://www.w3.org/2000/svg" viewBox="0 0 256 256" fill="currentColor"><path d="M52.44,36A6,6,0,0,0,48,34,14,14,0,0,0,34,48V208a14,14,0,0,0,14,14H208a6,6,0,0,0,4.44-10ZM46.26,47,78.07,82H46V48A2.06,2.06,0,0,1,46.26,47ZM48,210a2,2,0,0,1-2-2V94H89L194.44,210ZM222,48V177.23a6,6,0,1,1-12,0V94H134.88a6,6,0,0,1,0-12H210V48a2,2,0,0,0-2-2H182V56a6,6,0,0,1-12,0V46H91.25a6,6,0,0,1,0-12H170V24a6,6,0,0,1,12,0V34h26A14,14,0,0,1,222,48Z"/></svg>
